X: 270
T:Inviolata, integra et casta es / Nostra ut pura pectora / O benigna
N: Derived from Jos2404-Inviolata_integra_et_casta_es.krn
C: Josquin des Prez
%%abc-version 2.0
%%abcx-abcm2ps-target-version 5.9.1 (29 Sep 2008)
%%abc-creator hum2abc beta
%%abcx-conversion-date 2019/02/12 16:15:52
%%abc-edited-by Jesse Rodin
%%abc-edited-by Will Watson 2011/04/06; Victoria Chang 2011/04/10; Jesse Rodin 2013/04/03 (text)
%%abcx-initial-encoding-date 2011/04/06/
%%humdrum-veritas 995352733
%%humdrum-veritas-data 1091490953
%%linebreak <none>
%%barnumbers 0
L: 1/4
M: 2/1
Q: 1/2=120
V: 1 clef=treble
V: 2 clef=treble-8
V: 3 clef=treble-8
V: 4 clef=bass
V: 5 clef=bass
K: F
[V:1] F8 | 
[V:2] z8 | 
[V:3] z8 | 
[V:4] z8 | 
[V:5] z8 | 
[V:1] F4F4 | 
[V:2] z8 | 
[V:3] z8 | 
[V:4] z8 | 
[V:5] z8 | 
[V:1] G8 | 
[V:2] z8 | 
[V:3] z8 | 
[V:4] z8 | 
[V:5] z8 | 
[V:1] A4z2c2- | 
[V:2] z8 | 
[V:3] z8 | 
[V:4] z8 | 
[V:5] F,8 | 
[V:1] cBA3GF2 | 
[V:2] z8 | 
[V:3] z8 | 
[V:4] z8 | 
[V:5] F,4F,4 | 
[V:1] E2D4CB, | 
[V:2] z8 | 
[V:3] z8 | 
[V:4] z8 | 
[V:5] G,8 | 
[V:1] A,4z2c2- | 
[V:2] z8 | 
[V:3] F8 | 
[V:4] z8 | 
[V:5] A,4C3B, | 
[V:1] cBA3GF2 | 
[V:2] z8 | 
[V:3] F4F4 | 
[V:4] z8 | 
[V:5] A,G,F,3E,D,2 | 
[V:1] E2D4CB, | 
[V:2] z8 | 
[V:3] G8 | 
[V:4] z8 | 
[V:5] C,2B,,4A,,G,, | 
[V:1] A,4z2c2- | 
[V:2] z8 | 
[V:3] A8 | 
[V:4] F,8 | 
[V:5] F,,2z2C3B, | 
[V:1] cBA3GF2 | 
[V:2] z8 | 
[V:3] z4A3B | 
[V:4] F,4F,4 | 
[V:5] A,G,F,3E,D,2 | 
[V:1] E2D4CB, | 
[V:2] z8 | 
[V:3] c2d2D3E | 
[V:4] G,8 | 
[V:5] C,2B,,4A,,G,, | 
[V:1] A,4z2c2 | 
[V:2] c8 | 
[V:3] F4c4 | 
[V:4] A,8- | 
[V:5] F,,8 | 
[V:1] c3BA3G | 
[V:2] c4c4 | 
[V:3] A4F3G | 
[V:4] A,8 | 
[V:5] z2F,2F,3E, | 
[V:1] F3ED4 | 
[V:2] d8 | 
[V:3] A2B3cdB | 
[V:4] z4B,4 | 
[V:5] D,4G,,4 | 
[V:1] C8 | 
[V:2] e8- | 
[V:3] c3de2c2 | 
[V:4] A,4G,4 | 
[V:5] z4C,4 | 
[V:1] z4G4 | 
[V:2] e8 | 
[V:3] z2c3Bc2 | 
[V:4] A,4G,4 | 
[V:5] A,,3B,,C,4 | 
[V:1] A2F2A4 | 
[V:2] z4f4 | 
[V:3] A3Bc4 | 
[V:4] F,8 | 
[V:5] F,,8 | 
[V:1] G4z4 | 
[V:2] e4d4 | 
[V:3] z2c2A3B | 
[V:4] G,4F,4 | 
[V:5] C,4D,4 | 
[V:1] z8 | 
[V:2] e4d4 | 
[V:3] c2C2D4 | 
[V:4] G,8 | 
[V:5] C,3A,,B,,4 | 
[V:1] z2A3GE2 | 
[V:2] c8 | 
[V:3] E2F2E2A2 | 
[V:4] A,8- | 
[V:5] A,,8 | 
[V:1] F4E2c2 | 
[V:2] d4c4 | 
[V:3] F3GA4 | 
[V:4] A,8 | 
[V:5] D,4A,,2A,2 | 
[V:1] B2A4GF | 
[V:2] d8 | 
[V:3] z4A3B | 
[V:4] z8 | 
[V:5] G,2F,4E,D, | 
[V:1] E2G3FED | 
[V:2] e8- | 
[V:3] c3BG2A2- | 
[V:4] z8 | 
[V:5] C,8- | 
[V:1] C4z2G2 | 
[V:2] e8 | 
[V:3] AGAFG2c2 | 
[V:4] z8 | 
[V:5] C,8 | 
[V:1] A6B2 | 
[V:2] z8 | 
[V:3] A3Bc4 | 
[V:4] F,8 | 
[V:5] z4F,4- | 
[V:1] c4F4 | 
[V:2] z8 | 
[V:3] F4z2F2 | 
[V:4] A,4B,4 | 
[V:5] F,2E,2D,4 | 
[V:1] z8 | 
[V:2] z8 | 
[V:3] E2C2D4 | 
[V:4] A,4G,4 | 
[V:5] C,2A,,2B,,4 | 
[V:1] z4z2c2- | 
[V:2] c8 | 
[V:3] E2C2F4 | 
[V:4] z4A,4 | 
[V:5] A,,4F,,4 | 
[V:1] cBG2A4 | 
[V:2] e4f4 | 
[V:3] E4c4- | 
[V:4] G,4F,4 | 
[V:5] C,4F,,4 | 
[V:1] G8 | 
[V:2] e4d4 | 
[V:3] c2G2B4 | 
[V:4] z4G,4 | 
[V:5] C,3B,,G,,4 | 
[V:1] z8 | 
[V:2] z4e4 | 
[V:3] A2D2E2C2 | 
[V:4] F,4G,4- | 
[V:5] D,4C,4 | 
[V:1] z8 | 
[V:2] d4c4 | 
[V:3] D4E2c2 | 
[V:4] G,4A,4 | 
[V:5] B,,4A,,4 | 
[V:1] z8 | 
[V:2] z4d4 | 
[V:3] B2A3GGF | 
[V:4] z8 | 
[V:5] D,2C,2B,,4 | 
[V:1] c4B2A2- | 
[V:2] c4d4- | 
[V:3] A4G2F2 | 
[V:4] z8 | 
[V:5] A,,4z4 | 
[V:1] AGGFA4 | 
[V:2] d4e4 | 
[V:3] B4A4 | 
[V:4] z8 | 
[V:5] z8 | 
[V:1] z4c4- | 
[V:2] z8 | 
[V:3] c6d2 | 
[V:4] A,8 | 
[V:5] A,,6B,,2 | 
[V:1] c2B2A4 | 
[V:2] z8 | 
[V:3] e4A2f2 | 
[V:4] G,4F,4 | 
[V:5] C,4F,,4 | 
[V:1]  [K:C] G4z4 | 
[V:2]  [K:C] z8 | 
[V:3]  [K:C] d2e4dc | 
[V:4]  [K:C] G,6F,2 | 
[V:5]  [K:C] z2C,4D,2 | 
[V:1] z8 | 
[V:2] e8 | 
[V:3] =B4A4 | 
[V:4] G,4A,4 | 
[V:5] E,4A,,2A,2 | 
[V:1] z4z2G2 | 
[V:2] d4c4 | 
[V:3] z4G4 | 
[V:4] z8 | 
[V:5] F,2G,2E,4 | 
[V:1] F2A3GE2 | 
[V:2] d6c2 | 
[V:3] A2F3GA2 | 
[V:4] z8 | 
[V:5] D,4z4 | 
[V:1] F4E4 | 
[V:2] d4e4 | 
[V:3] D4z2G2 | 
[V:4] z4C4 | 
[V:5] z4C,4 | 
[V:1] z8 | 
[V:2] z8 | 
[V:3] F2E3DDC | 
[V:4] _B,2A,2G,4 | 
[V:5] D,2A,,2B,,4 | 
[V:1] z4z2C2 | 
[V:2] z8 | 
[V:3] E2c3BA2 | 
[V:4] A,4C4 | 
[V:5] A,,8 | 
[V:1] D2A,2B,4 | 
[V:2] z4g4 | 
[V:3] G2A2E4 | 
[V:4] _B,2A,2G,4 | 
[V:5] z4z2E,2 | 
[V:1] A,4z2A,2 | 
[V:2] f2e2d4 | 
[V:3] z2E2F2D2 | 
[V:4] A,8 | 
[V:5] F,2C,2D,4 | 
[V:1] C4B,4 | 
[V:2] e4g4 | 
[V:3] A4z2G2 | 
[V:4] z8 | 
[V:5] A,,4z2E,2 | 
[V:1] A,8 | 
[V:2] f2e2d4 | 
[V:3] A2E2F4 | 
[V:4] z8 | 
[V:5] F,2C,2D,4 | 
[V:1] z4C4 | 
[V:2] e8 | 
[V:3] E8 | 
[V:4] z4A,4 | 
[V:5] A,,8 | 
[V:1] D2F2E4 | 
[V:2] z8 | 
[V:3] z8 | 
[V:4] G,2F,2G,4 | 
[V:5] z4C,4 | 
[V:1] A,4B,4 | 
[V:2] z8 | 
[V:3] z8 | 
[V:4] F,4G,4 | 
[V:5] D,2F,2E,4 | 
[V:1] C6B,A, | 
[V:2] z4e4 | 
[V:3] z4c4 | 
[V:4] A,8 | 
[V:5] A,,8 | 
[V:1] A4z2A2- | 
[V:2] d2c2d4 | 
[V:3] d2e2f4 | 
[V:4] z8 | 
[V:5] z8 | 
[V:1] AGE2F4 | 
[V:2] c4d4 | 
[V:3] e4A3B | 
[V:4] z8 | 
[V:5] A,,4D,3C, | 
[V:1] E8 | 
[V:2] e8 | 
[V:3] c2ABcde2- | 
[V:4] z4C4 | 
[V:5] A,,4A,4 | 
[V:1] z8 | 
[V:2] z8 | 
[V:3] edd4^c2 | 
[V:4] _B,4G,4 | 
[V:5] G,3F,E,4 | 
[V:1] z8 | 
[V:2] z8 | 
[V:3] d2ABcde2- | 
[V:4] A,4z2A,2 | 
[V:5] D,4A,4 | 
[V:1] z4z2E2 | 
[V:2] z4g4 | 
[V:3] edd4^c2 | 
[V:4] _B,4G,4 | 
[V:5] G,3F,E,4 | 
[V:1] F2D2d4 | 
[V:2] f4d4 | 
[V:3] d4f4 | 
[V:4] A,8- | 
[V:5] D,8 | 
[V:1] c4z2c2 | 
[V:2] e4z2e2 | 
[V:3] e3dcBA2- | 
[V:4] A,8- | 
[V:5] z4A,,4 | 
[V:1] d2A2d4 | 
[V:2] f4d4 | 
[V:3] AGFEF4 | 
[V:4] A,8- | 
[V:5] D,4D,4 | 
[V:1] c8 ||  
[V:2] e8 ||  
[V:3] E8 ||  
[V:4] A,8 ||  
[V:5] A,,8 ||  
[V:1]  [K:F] [K:clef=treble][M:2/1]z8 | 
[V:2]  [K:F] [K:clef=treble-8][M:2/1]z8 | 
[V:3]  [K:F] [K:clef=treble-8][M:2/1]z8 | 
[V:4]  [K:F] [K:clef=bass][M:2/1]z8 | 
[V:5]  [K:F] [K:clef=bass][M:2/1]F,4F,4 | 
[V:1] z8 | 
[V:2] z8 | 
[V:3] z8 | 
[V:4] z8 | 
[V:5] A,4B,4 | 
[V:1] z8 | 
[V:2] z8 | 
[V:3] F4F4 | 
[V:4] z8 | 
[V:5] A,4C4- | 
[V:1] z8 | 
[V:2] z8 | 
[V:3] A4B4 | 
[V:4] z8 | 
[V:5] C2B,A,G,4 | 
[V:1] z8 | 
[V:2] z8 | 
[V:3] A4c4- | 
[V:4] z8 | 
[V:5] F,2F,,G,,A,,B,,C,D, | 
[V:1] z8 | 
[V:2] z8 | 
[V:3] c2BAG4 | 
[V:4] z8 | 
[V:5] E,2F,3E,E,D, | 
[V:1] z8 | 
[V:2] z8 | 
[V:3] F4G4- | 
[V:4] z8 | 
[V:5] F,2D,2E,2C,2- | 
[V:1] z8 | 
[V:2] z8 | 
[V:3] G4G4 | 
[V:4] z8 | 
[V:5] C,2B,,A,,B,,2C,2 | 
[V:1] z8 | 
[V:2] z8 | 
[V:3] A4G2A2- | 
[V:4] z8 | 
[V:5] F,,2F,2E,2F,2- | 
[V:1] z8 | 
[V:2] z8 | 
[V:3] AGAFG2A2- | 
[V:4] z8 | 
[V:5] F,E,F,D,E,2F,2 | 
[V:1] z8 | 
[V:2] z8 | 
[V:3] AGAFG2A2- | 
[V:4] z8 | 
[V:5] C,2F,2E,2F,2- | 
[V:1] z8 | 
[V:2] z8 | 
[V:3] AGAFG4 | 
[V:4] z8 | 
[V:5] F,E,F,D,E,F,G,E, | 
[V:1] z2c2A2F2 | 
[V:2] z8 | 
[V:3] F8 | 
[V:4] F,4F,4 | 
[V:5] F,4z2F,2 | 
[V:1] C2F3EED | 
[V:2] z8 | 
[V:3] z8 | 
[V:4] A,4B,4 | 
[V:5] F,2F,2G,4 | 
[V:1] F8 | 
[V:2] c4c4 | 
[V:3] z2c2A2F2 | 
[V:4] A,4A,4 | 
[V:5] F,8 | 
[V:1] z8 | 
[V:2] e4f4 | 
[V:3] C2c3=B=BA | 
[V:4] G,4F,4 | 
[V:5] z2C,2D,4 | 
[V:1] z2G2E2G2- | 
[V:2] e4e4 | 
[V:3] c4z2c2 | 
[V:4] z4G,4- | 
[V:5] C,8 | 
[V:1] GFD2EFGE | 
[V:2] d4c4 | 
[V:3] BcdBc2C2 | 
[V:4] G,4G,4 | 
[V:5] G,,4C,2E,2 | 
[V:1] F4z2D2 | 
[V:2] z4d4- | 
[V:3] [M:3/1](3:2:6F3GA2B2G2B2 | 
[V:4] A,2F,2G,4 | 
[V:5] D,4G,,4 | 
[V:1] F3GA3B | 
[V:2] d4d4 | 
[V:3] [M:2/1]A4z2F2 | 
[V:4] F,8 | 
[V:5] D,4z2D,2 | 
[V:1] c4F3G | 
[V:2] e2c2d4 | 
[V:3] G2A2D3E | 
[V:4] z8 | 
[V:5] C,2A,,2B,,3A,, | 
[V:1] A4z2F2 | 
[V:2] c8 | 
[V:3] F4z2F2 | 
[V:4] F,4F,4 | 
[V:5] F,,8 | 
[V:1] c2A2d4 | 
[V:2] z8 | 
[V:3] F2F2D3E | 
[V:4] A,4B,4 | 
[V:5] z2F,,2B,,3A,, | 
[V:1] c6=BA | 
[V:2] c4c4 | 
[V:3] F4E4 | 
[V:4] A,4G,4 | 
[V:5] F,,4C,4 | 
[V:1] G4z2F2 | 
[V:2] e4f4 | 
[V:3] z8 | 
[V:4] z4A,4 | 
[V:5] C,2E,2D,4 | 
[V:1] G2A3GGF | 
[V:2] e4d4 | 
[V:3] z8 | 
[V:4] C4B,4 | 
[V:5] C,4z4 | 
[V:1] A8 | 
[V:2] z4e4 | 
[V:3] z2A2c4 | 
[V:4] A,8 | 
[V:5] z2A,,2A,,B,,C,D, | 
[V:1] z4A4 | 
[V:2] g4f4 | 
[V:3] =B4A2F2 | 
[V:4] z8 | 
[V:5] E,F,G,E,F,3E, | 
[V:1] G3FG4 | 
[V:2] e8 | 
[V:3] c4c4 | 
[V:4] z8 | 
[V:5] C,8 | 
[V:1] A4z2c2 | 
[V:2] z8 | 
[V:3] A8 | 
[V:4] F,4F,4 | 
[V:5] z4F,4 | 
[V:1] c2c2d4 | 
[V:2] z8 | 
[V:3] z8 | 
[V:4] A,4B,4 | 
[V:5] F,2F,2B,,4 | 
[V:1] c2A4GF | 
[V:2] c4c4 | 
[V:3] z2c2A2c2- | 
[V:4] A,8 | 
[V:5] F,6E,D, | 
[V:1] G4F4 | 
[V:2] e4f4 | 
[V:3] c=BG2A2F2 | 
[V:4] z4A,4- | 
[V:5] C,2E,2D,4 | 
[V:1] z8 | 
[V:2] e8 | 
[V:3] c=Bcdefge | 
[V:4] A,2G,F,G,4 | 
[V:5] C,4C,4 | 
[V:1] z2A2c3=B | 
[V:2] z4e4- | 
[V:3] f3ec4 | 
[V:4] F,4A,4 | 
[V:5] D,4A,,4 | 
[V:1] G2A3^GG^F | 
[V:2] e2dcd4 | 
[V:3] z8 | 
[V:4] C4=B,4 | 
[V:5] z8 | 
[V:1] A8 | 
[V:2] c4e4 | 
[V:3] z2c3=BA2- | 
[V:4] A,2F,2C4 | 
[V:5] z4z2A,,2 | 
[V:1] z8 | 
[V:2] g4f4 | 
[V:3] A2G2A4 | 
[V:4] =B,4A,2F,2 | 
[V:5] E,4F,3E, | 
[V:1] z2A2=B2G2 | 
[V:2] e2c2g4 | 
[V:3] z8 | 
[V:4] C4=B,4 | 
[V:5] C,2A,,2E,4 | 
[V:1] A4z2c2 | 
[V:2] f4e2c2 | 
[V:3] z2A2c3=B | 
[V:4] A,8 | 
[V:5] F,3E,C,2A,,2 | 
[V:1] =B2G2A3B | 
[V:2] g4f4 | 
[V:3] G4d4 | 
[V:4] z8 | 
[V:5] E,4D,3C, | 
[V:1] c8 ||  
[V:2] e8 ||  
[V:3] c8 ||  
[V:4] A,8 ||  
[V:5] A,,8 ||  
[V:1]  [K:F] [K:clef=treble][M:2/1]z4c4- | 
[V:2]  [K:F] [K:clef=treble-8][M:2/1]z8 | 
[V:3]  [K:F] [K:clef=treble-8][M:2/1]c8- | 
[V:4]  [K:F] [K:clef=bass][M:2/1]A,8 | 
[V:5]  [K:F] [K:clef=bass][M:2/1]z8 | 
[V:1] c4G4 | 
[V:2] e8 | 
[V:3] c8 | 
[V:4] G,8 | 
[V:5] C,8 | 
[V:1] G4B4- | 
[V:2] d8 | 
[V:3] B8 | 
[V:4] G,8 | 
[V:5] G,,4G,,4 | 
[V:1] B2AGF3G | 
[V:2] d8 | 
[V:3] B8 | 
[V:4] F,8 | 
[V:5] B,,6A,,2 | 
[V:1] A3Bc4 | 
[V:2] c8 | 
[V:3] A8 | 
[V:4] z8 | 
[V:5] F,,8 | 
[V:1] z4c4- | 
[V:2] z8 | 
[V:3] c8- | 
[V:4] A,8 | 
[V:5] z8 | 
[V:1] c4G4 | 
[V:2] e8 | 
[V:3] c8 | 
[V:4] G,8 | 
[V:5] C,8 | 
[V:1] G4B4- | 
[V:2] d8 | 
[V:3] B8 | 
[V:4] G,8 | 
[V:5] G,,4G,,4 | 
[V:1] B2AGF3G | 
[V:2] d8 | 
[V:3] B8 | 
[V:4] F,8 | 
[V:5] B,,6A,,2 | 
[V:1] A3Bc4 | 
[V:2] c8 | 
[V:3] A8 | 
[V:4] z8 | 
[V:5] F,,8 | 
[V:1] z4c4- | 
[V:2] z8 | 
[V:3] c8- | 
[V:4] A,8 | 
[V:5] z8 | 
[V:1] c4G4 | 
[V:2] e8 | 
[V:3] c8 | 
[V:4] G,8 | 
[V:5] C,8 | 
[V:1] G4B4- | 
[V:2] d8 | 
[V:3] B8 | 
[V:4] G,8 | 
[V:5] G,,4G,,4 | 
[V:1] B2AGF4 | 
[V:2] d8 | 
[V:3] B8 | 
[V:4] F,8 | 
[V:5] B,,6A,,2 | 
[V:1] z4C4 | 
[V:2] c8 | 
[V:3] A2FGABc2- | 
[V:4] z8 | 
[V:5] F,,4F,3E, | 
[V:1] D4E4 | 
[V:2] z8 | 
[V:3] c=B=BAc4 | 
[V:4] F,4G,4 | 
[V:5] D,4C,4 | 
[V:1] z8 | 
[V:2] c4d4 | 
[V:3] z2A2B2A2 | 
[V:4] A,4z4 | 
[V:5] z2F,2B,,2D,2 | 
[V:1] z4F4 | 
[V:2] e4z4 | 
[V:3] c4F4 | 
[V:4] A,4B,2A,2 | 
[V:5] C,4B,,2F,,2 | 
[V:1] G4A4 | 
[V:2] e4f2e2 | 
[V:3] z2c2A2c2 | 
[V:4] G,4F,4- | 
[V:5] C,4F,,4 | 
[V:1] z4z2G2 | 
[V:2] d4c4- | 
[V:3] B3A/B/AGG2- | 
[V:4] F,2E,D,E,4 | 
[V:5] B,,4C,3B,, | 
[V:1] A4D4 | 
[V:2] c2BAB4 | 
[V:3] GEF2(3G2D2G2 | 
[V:4] z4G,4 | 
[V:5] A,,4G,,4 | 
[V:1] E4F4 | 
[V:2] z4d4 | 
[V:3] [M:3/1](3E2G2C2(3F3GA2 | 
[V:4] G,4A,4 | 
[V:5] C,2E,2D,4 | 
[V:1] z4G4 | 
[V:2] d4e4 | 
[V:3] [M:2/1]BcdBc4 | 
[V:4] G,6E,2 | 
[V:5] G,,4C,4 | 
[V:1] F3ED4 | 
[V:2] d6B2 | 
[V:3] A4z2D2 | 
[V:4] F,4G,4 | 
[V:5] D,3C,B,,4 | 
[V:1] C4F4 | 
[V:2] c4d4 | 
[V:3] E2F3GA=B | 
[V:4] A,4F,4 | 
[V:5] A,,4D,4 | 
[V:1] E2G2F2A2- | 
[V:2] e4c4 | 
[V:3] c6F2 | 
[V:4] G,4A,4 | 
[V:5] C,4F,3E, | 
[V:1] AGF2E2c2- | 
[V:2] d4e4 | 
[V:3] A3=Bc4 | 
[V:4] F,4G,4 | 
[V:5] D,4C,4 | 
[V:1] cBAGFGAF | 
[V:2] c4d4 | 
[V:3] z4z2A2 | 
[V:4] A,8 | 
[V:5] z2F,2D,2F,2 | 
[V:1] G2E2G4- | 
[V:2] e8 | 
[V:3] =B2c2G2c2 | 
[V:4] G,8- | 
[V:5] E,2C,3B,,C,2 | 
[V:1] G2FED2B2- | 
[V:2] d8- | 
[V:3] B2G4FE | 
[V:4] G,8 | 
[V:5] G,,4z2G,,2 | 
[V:1] B2AGF3G | 
[V:2] d8 | 
[V:3] D4B4 | 
[V:4] F,8- | 
[V:5] B,,4B,,4 | 
[V:1] ABc2A2cB | 
[V:2] c8- | 
[V:3] A2F2A3B | 
[V:4] F,8- | 
[V:5] F,,4F,3G, | 
[V:1] AGA2z2c2- | 
[V:2] c8- | 
[V:3] c4z2F2 | 
[V:4] F,8 | 
[V:5] A,3B,C3B, | 
[V:1] cBA4GF | 
[V:2] c8- | 
[V:3] F3GA3B | 
[V:4] z4F,4 | 
[V:5] A,G,F,4E,D, | 
[V:1] E2CDEFG2- | 
[V:2] c8- | 
[V:3] c4CDEF | 
[V:4] G,2E,2G,2C,2 | 
[V:5] C,8- | 
[V:1] GFF4E2 | 
[V:2] c8- | 
[V:3] G2A2G2c2 | 
[V:4] E,2F,2G,4 | 
[V:5] C,8 | 
[V:1] F8- | 
[V:2] c8- | 
[V:3] A2c3BAG | 
[V:4] F,8- | 
[V:5] z4F,4- | 
[V:1] F8- | 
[V:2] c8- | 
[V:3] A8- | 
[V:4] F,8- | 
[V:5] F,2F,2F,4 | 
[V:1] F8 |]  
[V:2] c8 |]  
[V:3] A8 |]  
[V:4] F,8 |]  
[V:5] F,,8 |]  



